X: 85
T: the Little Ship
C: Old English Song
%R: air, waltz, jig
B: "The Everyday Song Book", 1927
F: http://www.library.pitt.edu/happybirthday/pdf/The_Everyday_Song_Book.pdf
Z: 2017 John Chambers <jc:trillian.mit.edu>
M: 6/8
L: 1/8
K: A
% - - - - - - - - - - - - - - - - - - - - - - - - - - - - -
E | A2 A (AG) F | (E2 D) C2 E | A2 A B2 G | A3- A2 E |
w: 1.~I saw a ship* a sail-*ing,      A-sail-ing on the sea!*        And
w: 2.~The four and twen-*ty sail-*ors That stood be-tween the decks* Were
%
A2 B c2 d | (e2 c) A2 B | c2 c (cB) A | B3- B2 E/- E/ |
w: oh! it was all la-*den  with pret-ty things* for thee!*        There were
w: four and twen-ty white* mice with chains a-bout* their necks;* The*
%
A2 B c2 d | (e2 c) A2 B/- B/ | c2 c (cB) A | B2 z H(c2 B) |
w: com-fits in the cab-*in,     And* ap-ples in* the hold,   And the
w: cap-tain was a lit-tle duck, With a pack-et on* his back, And*
%
A2 A (AG) F | (E2 D) C2 E/- E/ | A2 A B2 G | A3- A2 |]
w: spread-ing sails* were made of silk, And the masts were made of gold.*
w: when the ship* be-gan to move, The* cap-tain cried, "quack! quack!"*
% - - - - - - - - - - - - - - - - - - - - - - - - - - - - -
